svgs/regular/ruler-vertical.svg

<svg xmlns="http://www.w3.org/2000/svg" viewBox="0 0 256 512"><!--! Font Awesome Pro 6.0.0-alpha3 by @fontawesome - https://fontawesome.com License - https://fontawesome.com/license (Commercial License) --><path d="M256 464v-416C256 21.6 234.4 0 208 0h-160C21.6 0 0 21.6 0 48v416C0 490.4 21.6 512 48 512h160C234.4 512 256 490.4 256 464zM48 464v-416h160V96H160c-8.8 0-16 7.2-16 15.1S151.2 128 160 128h48v64H160c-8.8 0-16 7.2-16 15.1C144 216.8 151.2 224 160 224h48v64H160c-8.8 0-16 7.2-16 16S151.2 320 160 320h48v64H160c-8.8 0-16 7.2-16 16S151.2 416 160 416h48v48H48z"/></svg>

<svg xmlns="http://www.w3.org/2000/svg" viewBox="0 0 256 512"><!-- Font Awesome Pro 6.0.0-alpha2 by @fontawesome - https://fontawesome.com License - https://fontawesome.com/license (Commercial License) --><path d="M256 464V48C256 21.6 234.4 0 208 0H48C21.6 0 0 21.6 0 48V464C0 490.4 21.6 512 48 512H208C234.4 512 256 490.4 256 464ZM48 464V48H208V96H160C151.2 96 144 103.2 144 112V112C144 120.8 151.2 128 160 128H208V192H160C151.2 192 144 199.2 144 208V208C144 216.8 151.2 224 160 224H208V288H160C151.2 288 144 295.2 144 304V304C144 312.8 151.2 320 160 320H208V384H160C151.2 384 144 391.2 144 400V400C144 408.8 151.2 416 160 416H208V464H48Z"/></svg>
